X:1
T:A Salvation Soldier
T:A Salvation Soldier
T:PUBLIC DOMAIN
Z:PUBLIC DOMAIN
%%score ( 1 2 ) ( 3 4 )
L:1/8
Q:3/8=65
M:12/8
K:Bb
V:1 treble nm="Treble"
V:2 treble 
V:3 bass nm="Bass"
V:4 bass 
V:1
 [DB]3 [DB] [FA] [EG] [EG]3 [DF]3 | [CE]3 [CE] [EG] [DF] [B,D]6 | %2
w: 1.~God’s trum- pet is sound- ing,|“To arms!” is the call,|
w: 2.~On land and on wa- ter|my col- ors I’ll show,|
w: 3.~When foes per- se- cute me|I’ll not be dis- mayed—|
w: 4.~I’ll fight to the last with|the Lord’s sword and shield,|
 [DB]3 [DB] [FA] [EG] [EG]3 [DF]3 | [C=E]3 [CE] [CF] [CG] [CF]6 | %4
w: More war- riors are want- ed|to help on the war;|
w: Thro’ ten thou- sand bat- tles|with Je- sus I’ll go;|
w: Sin, death, hell, and fiends shall|not make me a- fraid;|
w: And count it an hon- or|to die in the field;|
 [CA]3 [CA] [DB] [Ec] [Ec]3 [EF]3 | [DF]3 [DF] [DB] [Ec] [Fd]6 |: [^Fd]3 [Fd] [Fc][FA] B3 [EG]3 | %7
w: My King’s in the bat- tle,|He’s call- ing for me,|A sal- va- tion sol- dier|
w: In dan- ger I’m cer- tain|He’ll take care of me,|His blood- and- fire sol- dier|
w: From fear- ing and doubt- ing|I’m ful- ly set free,|A sal- va- tion sol- dier|
w: In death and the grave there|is vic- t’ry for me,|A sal- va- tion sol- dier|
"^accel." [DF]3 [CF] [DF] [EF] [DF]6 :| %8
w: for Je- sus I’ll be.|
w: for- ev- er I’ll be.|
w: for God I will be.|
w: in glo- ry I’ll be.|
V:2
 x12 | x12 | x12 | x12 | x12 | x12 |: z3 z3 (G2 D) z3 | x12 :| %8
V:3
 [B,,B,]3 [B,,B,] [B,,B,] [B,,B,] [B,,B,]3 [B,,B,]3 | F,3 F, F,F, [B,,F,]6 | %2
 [B,,B,]3 [B,,B,] [B,,B,] [B,,B,] [B,,B,]3 [B,,B,]3 | [C,G,]3 [C,G,] [C,A,] [C,B,] [F,A,]6 | %4
 [F,C]3 [F,C] [F,B,] [F,A,] [F,A,]3 [F,C]3 | [B,,B,]3 [B,,B,] [B,,B,] [B,,B,] [B,,B,]6 |: %6
 [D,A,]3 [D,A,] [D,A,] [D,C] [G,B,]3 [E,B,]3 |"^accel." [F,B,]3 [F,A,] [F,B,] [F,C] [B,,B,]6 :| %8
V:4
 x12 | F,3 F, F,F, z6 | x12 | x12 | x12 | x12 |: x12 | x12 :| %8

